!!!!SEGMENT: pl-wtm--r-71-n--002_noskowski-zygmunt--powrot-suita-krakowiakow-moderato-molto-cantabile.krn
!!!cenid: 18xx:2112
!!!COM: Noskowski, Zygmunt
!!!COM-rismID: pe106604
!!!CDT: 1846/05/02-1909/07/23
!!!CNT: Polish
!!!OPR: Powrót - Suita krakowiaków
!!!OTL: Moderato molto cantabile
!!!OMV: 002
!!!PDT: 1894
!!!AGN: Secular
!!!SMS-siglum: PL-Wtm
!!!SMS-shelfmark: R 71/N
!!!SMS-shelfwork: 001-002 M
!!!SMS-variant:
!!!SMS-altvar:
!!!NIFC-rismSourceID: 1001096000
!!!NIFC-islandoraID:
!!!URL-pdf-islandora:
!!!URL-scan:
!!!ONB-nifc: UWAGA: Numeracja krakowiaków zgodna z kolejnością źródłową (I-VIII)
!!!AIN: 1 alto 1 bass 2 piano 1 soprn 1 tenor
!!!OMD:
!!!OMD-mod: Moderato molto cantabile
!!!key: c#
**kern	**kern	**dynam	**kern	**kern	**dynam	**kern	**text	**mod-text	**dynam	**mod-dynam	**kern	**text	**mod-text	**dynam	**mod-dynam	**kern	**text	**mod-text	**dynam	**mod-dynam	**kern	**text	**mod-text	**dynam	**mod-dynam
*part6	*part6	*part6	*part5	*part5	*part5	*part4	*part4	*part4	*part4	*part4	*part3	*part3	*part3	*part3	*part3	*part2	*	*	*part2	*part2	*part1	*part1	*part1	*part1	*part1
*staff8	*staff7	*	*staff6	*staff5	*	*staff4	*staff4	*staff4	*	*	*staff3	*staff3	*staff3	*	*	*staff2	*	*	*	*	*staff1	*staff1	*staff1	*	*
*Ipiano	*Ipiano	*	*Ipiano	*Ipiano	*	*Ibass	*	*	*	*	*Itenor	*	*	*	*	*Ialto	*	*	*	*	*Isoprn	*	*	*	*
*ICklav	*ICklav	*	*ICklav	*ICklav	*	*ICvox	*	*	*ICvox	*ICvox	*	*ICvox	*ICvox	*	*	*	*	*	*	*	*ICvox	*	*	*	*
*I"2do	*I"2do	*	*I"Io	*I"Io	*	*I"Bas	*	*	*	*	*I"Ten	*	*	*	*	*I"Alt	*	*	*	*	*I"Sopran	*	*	*	*
*mI"Pianoforte II	*mI"Pianoforte II	*	*mI"Pianoforte I	*mI"Pianoforte I	*	*mI"Bassi	*	*	*	*	*mI"Tenori	*	*	*	*	*mI"Alti	*	*	*	*	*mI"Soprani	*	*	*	*
*I'	*I'	*	*I'	*I'	*	*I'	*	*	*	*	*I'	*	*	*	*	*I'	*	*	*	*	*I'	*	*	*	*
*mI'pf II	*mI'pf II	*	*mI'pf I	*mI'pf I	*	*mI'B	*	*	*	*	*mI'T	*	*	*	*	*mI'A	*	*	*	*	*mI'S	*	*	*	*
*clefF4	*clefF4	*	*clefG2	*clefG2	*	*clefF4	*	*	*	*	*clefGv2	*	*	*	*	*clefG2	*	*	*	*	*clefG2	*	*	*	*
*k[f#c#g#d#]	*k[f#c#g#d#]	*	*k[f#c#g#d#]	*k[f#c#g#d#]	*	*k[f#c#g#d#]	*	*	*	*	*k[f#c#g#d#]	*	*	*	*	*k[f#c#g#d#]	*	*	*	*	*k[f#c#g#d#]	*	*	*	*
*>[A,B,B,C]	*>[A,B,B,C]	*	*>[A,B,B,C]	*>[A,B,B,C]	*	*>[A,B,B,C]	*	*	*	*	*>[A,B,B,C]	*	*	*	*	*>[A,B,B,C]	*	*	*	*	*>[A,B,B,C]	*	*	*	*
*c#:	*c#:	*	*c#:	*c#:	*	*c#:	*	*	*	*	*c#:	*	*	*	*	*c#:	*	*	*	*	*c#:	*	*	*	*
*M2/4	*M2/4	*	*M2/4	*M2/4	*	*M2/4	*	*	*	*	*M2/4	*	*	*	*	*M2/4	*	*	*	*	*M2/4	*	*	*	*
=1	=1	=1	=1	=1	=1	=1	=1	=1	=1	=1	=1	=1	=1	=1	=1	=1	=1	=1	=1	=1	=1	=1	=1	=1	=1
*>A	*>A	*	*>A	*>A	*	*>A	*	*	*	*	*>A	*	*	*	*	*>A	*	*	*	*	*>A	*	*	*	*
*all\right	*all\right	*	*all\right	*all\right	*	*all\right	*	*	*	*	*all\right	*	*	*	*	*all\right	*	*	*	*	*all\right	*	*	*	*
!	!LO:TX:a:B:t=Moderato molto cantabile:mod=	!	!	!LO:TX:a:B:t=Moderato molto cantabile:mod=	!	!	!	!	!	!	!	!	!	!	!	!	!	!	!	!	!LO:TX:a:B:t=Moderato molto cantabile:mod=	!	!	!	!
2r	4r	.	(8g#'/L	(8gg#'\L	p <	2ryy	.	.	.	.	2ryy	.	.	.	.	2r	.	.	.	.	2r	.	.	.	.
.	.	.	8g#'/J)	8gg#'\J)	[[	.	.	.	.	.	.	.	.	.	.	.	.	.	.	.	.	.	.	.	.
!	!	!LO:DY:rj	!	!	!	!	!	!	!	!	!	!	!	!	!	!	!	!	!	!	!	!	!	!	!
.	(8.G#^\L	p	4r	(8.g#^/L	>	.	.	.	.	.	.	.	.	.	.	.	.	.	.	.	.	.	.	.	.
!	!	!	!	!	!LO:MO:mod=]]	!	!	!	!	!	!	!	!	!	!	!	!	!	!	!	!	!	!	!	!
.	16A\Jk)	.	.	16a/Jk)	]	.	.	.	.	.	.	.	.	.	.	.	.	.	.	.	.	.	.	.	.
=2	=2	=2	=2	=2	=2	=2	=2	=2	=2	=2	=2	=2	=2	=2	=2	=2	=2	=2	=2	=2	=2	=2	=2	=2	=2
2r	4r	.	(8g#'/L	(8gg#'\L	<	2ryy	.	.	.	.	2ryy	.	.	.	.	2r	.	.	.	.	2r	.	.	.	.
!	!	!	!	!	!LO:MO:mod=[[	!	!	!	!	!	!	!	!	!	!	!	!	!	!	!	!	!	!	!	!
.	.	.	8g#'/J)	8gg#'\J)	[	.	.	.	.	.	.	.	.	.	.	.	.	.	.	.	.	.	.	.	.
.	(8.A#X^\L	.	4r	(8.a#X^/L	>	.	.	.	.	.	.	.	.	.	.	.	.	.	.	.	.	.	.	.	.
!	!	!	!	!	!LO:MO:mod=]]	!	!	!	!	!	!	!	!	!	!	!	!	!	!	!	!	!	!	!	!
.	16B\Jk)	.	.	16b/Jk)	]	.	.	.	.	.	.	.	.	.	.	.	.	.	.	.	.	.	.	.	.
=3	=3	=3	=3	=3	=3	=3	=3	=3	=3	=3	=3	=3	=3	=3	=3	=3	=3	=3	=3	=3	=3	=3	=3	=3	=3
2r	4r	.	(8g#'/L	(8gg#'\L	<	2ryy	.	.	.	.	2ryy	.	.	.	.	2r	.	.	.	.	2r	.	.	.	.
!	!	!	!	!	!LO:MO:mod=[[	!	!	!	!	!	!	!	!	!	!	!	!	!	!	!	!	!	!	!	!
.	.	.	8g#'/J)	8gg#'\J)	[	.	.	.	.	.	.	.	.	.	.	.	.	.	.	.	.	.	.	.	.
.	(8.B#X^\L	.	4r	(8.b#X^\L	>	.	.	.	.	.	.	.	.	.	.	.	.	.	.	.	.	.	.	.	.
!	!	!	!	!	!LO:MO:mod=]]	!	!	!	!	!	!	!	!	!	!	!	!	!	!	!	!	!	!	!	!
.	16c#\Jk)	.	.	16cc#\Jk)	]	.	.	.	.	.	.	.	.	.	.	.	.	.	.	.	.	.	.	.	.
=4	=4	=4	=4	=4	=4	=4	=4	=4	=4	=4	=4	=4	=4	=4	=4	=4	=4	=4	=4	=4	=4	=4	=4	=4	=4
4r	(8e\L	.	4r	(8ee\L	.	2ryy	.	.	.	.	2ryy	.	.	.	.	2r	.	.	.	.	2r	.	.	.	.
.	8d#\	.	.	8dd#\	.	.	.	.	.	.	.	.	.	.	.	.	.	.	.	.	.	.	.	.	.
8r	8G#\)	.	8g#/L	8gg#\)	.	.	.	.	.	.	.	.	.	.	.	.	.	.	.	.	.	.	.	.	.
8BB#X/ 8BBB#X/	8G#\J	.	8g#/J 8f#/	8gg#\J 8ff#\	.	.	.	.	.	.	.	.	.	.	.	.	.	.	.	.	.	.	.	.	.
=5!|:	=5!|:	=5!|:	=5!|:	=5!|:	=5!|:	=5!|:	=5!|:	=5!|:	=5!|:	=5!|:	=5!|:	=5!|:	=5!|:	=5!|:	=5!|:	=5!|:	=5!|:	=5!|:	=5!|:	=5!|:	=5!|:	=5!|:	=5!|:	=5!|:	=5!|:
*>B	*>B	*	*>B	*>B	*	*>B	*	*	*	*	*>B	*	*	*	*	*>B	*	*	*	*	*>B	*	*	*	*
!	!	!	!	!	!	!	!	!	!	!	!	!	!	!	!	!	!	!	!LO:MO:mod=*null:null	!LO:MO:mod=*null:null	!	!	!	!LO:MO:mod=*null:null	!LO:MO:mod=*null:null
*	*	*	*	*	*	*	*	*	*	*	*	*	*	*	*	*	*	*	*below	*below	*	*	*	*below	*below
!	!	!LO:DY:rj	!	!LO:TX:b:i:t=espressivo	!LO:DY:rj	!	!	!	!	!	!	!	!	!	!	!LO:TX:a:i:t=espressivo	!	!	!	!	!LO:TX:a:i:t=espressivo	!	!	!	!
8C#/L 8CC#/	8e\L 8G#\	p	(8g#'/L	(>8gg#\L 8ee'\	p	2ryy	.	.	.	.	2ryy	.	.	.	.	8e/	.	Rze-	p	p	8g#/	Rze-	Rze-	p	p
8C#/	8e\ 8G#\	.	8g#'/J	8gg#\ 8ee'\	.	.	.	.	.	.	.	.	.	.	.	8e/	.	cze	<	<	8g#/	-cze	-cze	<	<
.	.	.	(8qb/	(<8qbb/	.	.	.	.	.	.	.	.	.	.	.	.	.	.	.	.	(8qb/	.	.	.	.
!	!	!	!	!LO:S:s=2:note:problem=note-level slur	!	!	!	!	!	!	!	!	!	!	!	!	!	!	!	!	!	!	!	!	!
!	!	!	!LO:SIC:s=8a'/)	!	!	!	!	!	!	!	!	!	!	!	!	!	!	!	!	!	!	!	!	!	!
8C#/	8e\ 8G#\	.	8a'/L)	8aa\) 8ee'\	.	.	.	.	.	.	.	.	.	.	.	8e/	.	dzie-	.	.	8a/)	dzie-	dzie-	.	.
8C#/J	8e\J 8G#\	.	8g#'/J)	8gg#\J 8ee'\)	.	.	.	.	.	.	.	.	.	.	.	8e/	.	-wczę	[[	[[	8g#/	-wczę	-wczę	[	[[
=6	=6	=6	=6	=6	=6	=6	=6	=6	=6	=6	=6	=6	=6	=6	=6	=6	=6	=6	=6	=6	=6	=6	=6	=6	=6
*rep	*rep	*	*rep	*rep	*	*	*	*	*	*	*	*	*	*	*	*	*	*	*	*	*	*	*	*	*
8C#/L 8CC#/	8e\L 8G#\	.	(8g#'/L	(8gg#\L 8ee'\	.	2ryy	.	.	.	.	2ryy	.	.	.	.	8e/	.	do	.	.	8g#/	do	do	.	.
8C#/	8e\ 8G#\	.	8g#'/J	8gg#\ 8ee'\	.	.	.	.	.	.	.	.	.	.	.	8e/	.	mi-	.	.	8g#/	mi-	mi-	.	.
.	.	.	(8qb/	(<8qbb/	.	.	.	.	.	.	.	.	.	.	.	.	.	.	.	.	(8qb/	.	.	.	.
!	!	!	!	!LO:S:s=2:note:problem=note-level slur	!	!	!	!	!	!	!	!	!	!	!	!	!	!	!	!	!	!	!	!	!
!	!	!	!LO:SIC:s=8a'/)	!	!	!	!	!	!	!	!	!	!	!	!	!	!	!	!	!	!	!	!	!	!
8C#/	8e\ 8G#\	.	8a'/L)	8aa\) 8ee'\	.	.	.	.	.	.	.	.	.	.	.	8e/	.	-łe-	.	.	8a/)	-łe-	-łe-	.	.
8C#/J	8e\J 8G#\	.	8g#'/J)	8gg#\J 8ee'\)	.	.	.	.	.	.	.	.	.	.	.	8e/	.	-go:	.	.	8g#/	-go:	-go:	.	.
*Xrep	*Xrep	*	*Xrep	*Xrep	*	*	*	*	*	*	*	*	*	*	*	*	*	*	*	*	*	*	*	*	*
!!LO:LB:g=original
=7	=7	=7	=7	=7	=7	=7	=7	=7	=7	=7	=7	=7	=7	=7	=7	=7	=7	=7	=7	=7	=7	=7	=7	=7	=7
8C#/L	8e\L 8G#\	.	8cc#\	8ccc#\ 8ee\	.	2ryy	.	.	.	.	2ryy	.	.	.	.	8e/	.	„Nie-	.	.	8cc#\	Nie	„Nie-	.	.
8C#/	8e\ 8G#\	.	4ee^\	4eee^\	.	.	.	.	.	.	.	.	.	.	.	4e/	.	wie-	.	.	4ee\	wie-	-wie-	.	.
8C#/	8e\ 8G#\	.	.	.	.	.	.	.	.	.	.	.	.	.	.	.	.	.	.	.	.	.	.	.	.
8C#/J	8e\J 8G#\	.	(16dd#\LL	(16ddd#\LL	.	.	.	.	.	.	.	.	.	.	.	16e/	.	leć	.	.	16dd#\	-leć	-leć	.	.
.	.	.	16cc#\JJ	16ccc#\JJ	.	.	.	.	.	.	.	.	.	.	.	16e/	.	ja	.	.	16cc#\	ja	ja	.	.
=8	=8	=8	=8	=8	=8	=8	=8	=8	=8	=8	=8	=8	=8	=8	=8	=8	=8	=8	=8	=8	=8	=8	=8	=8	=8
8C#/L	8f#\L 8A\	.	8dd#\	8ddd#\ 8ff#\	.	2ryy	.	.	.	.	2ryy	.	.	.	.	4.f#/	.	mam.	.	.	(8dd#\	mam.	mam.	.	.
8C#/	8f#\ 8A\	.	4a/)	4aa\ 4ff#\)	.	.	.	.	.	.	.	.	.	.	.	.	.	.	.	.	4a/)	.	.	.	.
8C#/	8f#\ 8A\	.	.	.	.	.	.	.	.	.	.	.	.	.	.	.	.	.	.	.	.	.	.	.	.
8C#/J	8f#\J 8A\	.	8r	8r	.	.	.	.	.	.	.	.	.	.	.	8r	.	.	.	.	8r	.	.	.	.
=9	=9	=9	=9	=9	=9	=9	=9	=9	=9	=9	=9	=9	=9	=9	=9	=9	=9	=9	=9	=9	=9	=9	=9	=9	=9
8C#/L 8CC#/	8f#\L 8A\	.	(8a'/L	(8aa\L 8ff#'\	.	2ryy	.	.	.	.	2ryy	.	.	.	.	8f#/	.	Ten	.	.	8a/	Ten	Ten	.	.
8C#/	8f#\ 8A\	.	8a'/J	8aa\ 8ff#'\	.	.	.	.	.	.	.	.	.	.	.	8f#/	.	me-	.	.	8a/	me-	me-	.	.
.	.	.	(8qcc#/	(<8qccc#/	.	.	.	.	.	.	.	.	.	.	.	.	.	.	.	.	(8qcc#/	.	.	.	.
!	!	!	!	!LO:S:s=2:note:problem=note-level slur	!	!	!	!	!	!	!	!	!	!	!	!	!	!	!	!	!	!	!	!	!
!	!	!	!LO:SIC:s=8b'/)	!	!	!	!	!	!	!	!	!	!	!	!	!	!	!	!	!	!	!	!	!	!
8C#/	8f#\ 8A\	.	8b'/L)	8bb\) 8ff#'\	.	.	.	.	.	.	.	.	.	.	.	8f#/	.	-da-	.	.	8b/)	-da-	-da-	.	.
8C#/J	8f#\J 8A\	.	8a'/J)	8aa\J 8ff#'\)	.	.	.	.	.	.	.	.	.	.	.	8f#/	.	-lik	.	.	8a/	-lik	-lik	.	.
=10	=10	=10	=10	=10	=10	=10	=10	=10	=10	=10	=10	=10	=10	=10	=10	=10	=10	=10	=10	=10	=10	=10	=10	=10	=10
8C#/L	8f#\L 8A\	.	(8dd#'\L	(8ddd#\L 8ff#'\	.	2ryy	.	.	.	.	2ryy	.	.	.	.	8f#/	.	z Mat-	.	.	8dd#\	z Mat-	z Mat-	.	.
8C#/	8f#\ 8A\	.	8cc#'\	8ccc#\ 8ff#'\	.	.	.	.	.	.	.	.	.	.	.	8f#/	.	-ką	.	.	8cc#\	-ką	-ką	.	.
8C#/	8d#\ 8F#\	.	8b'\	8bb\ 8dd#'\	.	.	.	.	.	.	.	.	.	.	.	8d#/	.	Bos-	.	.	8b\	Bos-	Bos-	.	.
8C#/J 8CC#/	8d#\J 8F#\	.	8a'\J)	8aa\J 8dd#'\)	.	.	.	.	.	.	.	.	.	.	.	8d#/	.	ką	.	.	8a/	-ką	-ką	.	.
=11	=11	=11	=11	=11	=11	=11	=11	=11	=11	=11	=11	=11	=11	=11	=11	=11	=11	=11	=11	=11	=11	=11	=11	=11	=11
8BB#X/L 8BBB#X/	8d#\ 8G#\ 8F#\	.	8g#/	8gg#\ 8dd#\	.	2ryy	.	.	.	.	2ryy	.	.	.	.	8d#/	.	na	.	.	8g#/	Na	na	.	.
8BB#/ 8BBB#/	4f#\ 4G#^\	.	(4ff#\ 4a^\	(4fff#\ 4aa^\	.	.	.	.	.	.	.	.	.	.	.	4a/	.	dro-	.	.	4ff#\	dro-	dro-	.	.
8BB#/ 8BBB#/	.	.	.	.	.	.	.	.	.	.	.	.	.	.	.	.	.	.	.	.	.	.	.	.	.
8GG#/J 8GGG#/	16g#\LL 16e\ 16G#\	.	16ee\LL	16eee\LL 16gg#\	.	.	.	.	.	.	.	.	.	.	.	16g#/	.	-gę	.	.	16ee\	-gę	-gę	.	.
.	16f#\JJ 16d#\ 16G#\	.	16dd#\JJ)	16ddd#\JJ 16ff#\)	.	.	.	.	.	.	.	.	.	.	.	16f#/	.	ci	.	.	16dd#\	ci	ci	.	.
=12	=12	=12	=12	=12	=12	=12	=12	=12	=12	=12	=12	=12	=12	=12	=12	=12	=12	=12	=12	=12	=12	=12	=12	=12	=12
8C#/L 8CC#/	8e\L 8c#\ 8G#\	.	(8ee\	(8eee 8gg#\	.	2ryy	.	.	.	.	2ryy	.	.	.	.	(8g#/	.	dam.	.	.	(8ee\	dam.	dam.	.	.
8C#/J 8CC#/	8e\J 8c#\ 8G#\	.	4cc#\)	4ccc#\ 4ee\)	.	.	.	.	.	.	.	.	.	.	.	4e/)	.	.	.	.	4cc#\)	.	.	.	.
8C#/L	8e\L 8G#\	.	.	.	.	.	.	.	.	.	.	.	.	.	.	.	.	.	.	.	.	.	.	.	.
8C#/J	8e\J 8G#\	.	8r	8r	.	.	.	.	.	.	.	.	.	.	.	8r	.	.	.	.	8r	.	.	.	.
!!LO:PB:g=original
=13:|!	=13:|!	=13:|!	=13:|!	=13:|!	=13:|!	=13:|!	=13:|!	=13:|!	=13:|!	=13:|!	=13:|!	=13:|!	=13:|!	=13:|!	=13:|!	=13:|!	=13:|!	=13:|!	=13:|!	=13:|!	=13:|!	=13:|!	=13:|!	=13:|!	=13:|!
*>C	*>C	*	*>C	*>C	*	*>C	*	*	*	*	*>C	*	*	*	*	*>C	*	*	*	*	*>C	*	*	*	*
!	!	!	!	!	!	!	!	!	!	!	!	!	!	!	!	!	!	!	!LO:DY:a	!LO:DY:a	!	!	!	!LO:DY:a	!LO:DY:a
8GG#/	8d#\ 8Bn\ 8G#\	mf	(8.b/L 8.g#/	(8.bb\L 8.gg#\	mf	2ryy	.	.	.	.	2ryy	.	.	.	.	8.g#/	.	Ten	mf	mf	8.b\	Ten	Ten	mf	mf
8r	8r	.	.	.	.	.	.	.	.	.	.	.	.	.	.	.	.	.	.	.	.	.	.	.	.
.	.	.	16cc#/Jk 16a#X/	16ccc#\Jk 16aa#X\	.	.	.	.	.	.	.	.	.	.	.	16a#X/	.	me-	.	.	16cc#\	me-	me-	.	.
4r	(8B\L 8G#\	.	8dd#/L 8b/	8ddd#\L 8bb\	.	.	.	.	.	.	.	.	.	.	.	8b/	.	-da-	.	.	8dd#\	-da-	-da-	.	.
.	8d#\J 8B\)	.	8b/J 8g#/)	8bb\J 8gg#\)	.	.	.	.	.	.	.	.	.	.	.	8g#/	.	-lik	.	.	8b\	-lik	-lik	.	.
=14	=14	=14	=14	=14	=14	=14	=14	=14	=14	=14	=14	=14	=14	=14	=14	=14	=14	=14	=14	=14	=14	=14	=14	=14	=14
4r	(8e\L 8c#\	.	(8a#X/L 8f##X/	(8aa#X\L 8ff##X\	.	2ryy	.	.	.	.	2ryy	.	.	.	.	8f##X/	.	po-	.	.	8a#X/	po-	po-	.	.
.	8d#\ 8B\	.	8b/ 8g#/	8bb\ 8gg#\	.	.	.	.	.	.	.	.	.	.	.	8g#/	.	-świę-	.	.	8b/	-świę-	-świę-	.	.
(8D#/L 8DD#/	8c#\	.	8a#/ 8f##/	8aa#\ 8ff##\	.	.	.	.	.	.	.	.	.	.	.	8f##/	.	-co-	.	.	8a#/	-co-	-co-	.	.
8AA#X/J 8AAA#X/)	8c#\J 8F##X\)	.	8d#/J)	8dd#\J 8cc#\)	.	.	.	.	.	.	.	.	.	.	.	8c#/	.	-ny	.	.	8d#/	-ny	-ny	.	.
=15	=15	=15	=15	=15	=15	=15	=15	=15	=15	=15	=15	=15	=15	=15	=15	=15	=15	=15	=15	=15	=15	=15	=15	=15	=15
8GG#/ 8GGG#/	8B\L 8G#\	.	8g#/L	8gg#\L 8b\	.	2ryy	.	.	.	.	2ryy	.	.	.	.	8B/	.	weź,	.	.	8g#/	Weź,	weź,	.	.
8r	16r	.	16r	16r	.	.	.	.	.	.	.	.	.	.	.	16r	.	.	.	.	16r	.	.	.	.
.	16d#\Jk 16c#\ 16D#\	.	16a#X/Jk	16aa#X\Jk 16dd#\	.	.	.	.	.	.	.	.	.	.	.	16d#/	.	na	.	.	16a#X/	na	na	.	.
8GG#/L 8GGG#/	8d#\L 8B\ 8D#\	.	(8b/L 8g#/	(8bb\L 8gg#\	.	.	.	.	.	.	.	.	.	.	.	8g#/	.	szy-	.	.	8b/	szy-	szy-	.	.
!	!	!	!LO:N:n=2:acc=n#	!LO:N:n=2:acc=n#	!	!	!	!	!	!	!	!	!	!	!	!LO:N:acc=n#	!	!	!	!	!	!	!	!	!
8GG#/J 8GGG#/	8d#\J 8B#X\ 8F#\	.	8g#/J 8f#X/)	8gg#\J 8ff#X\)	.	.	.	.	.	.	.	.	.	.	.	8f#X/	.	ję	.	.	8g#/	-ję	-ję	.	.
=16	=16	=16	=16	=16	=16	=16	=16	=16	=16	=16	=16	=16	=16	=16	=16	=16	=16	=16	=16	=16	=16	=16	=16	=16	=16
(8qGGG#/	.	.	.	.	.	.	.	.	.	.	.	.	.	.	.	.	.	.	.	.	.	.	.	.	.
*	*	*	*	*	*	*	*	*	*	*	*	*	*	*	*	*	*	*	*above	*above	*	*	*	*	*
([8GG#^>/L)	8c#\L 8G#\ 8E\	<	(4cc#/ 4e/	(4ccc#\ 4ee\	<	2ryy	.	.	.	.	2ryy	.	.	.	.	(4e/	.	wdziej,	<	<	(4cc#\	wdziej,	wdziej,	<	<
32GG#/LL]	8c#\ 8G#\ 8E\	.	.	.	.	.	.	.	.	.	.	.	.	.	.	.	.	.	.	.	.	.	.	.	.
32FF#/	.	.	.	.	.	.	.	.	.	.	.	.	.	.	.	.	.	.	.	.	.	.	.	.	.
32EE/	.	.	.	.	.	.	.	.	.	.	.	.	.	.	.	.	.	.	.	.	.	.	.	.	.
32DD#/JJJ	.	.	.	.	.	.	.	.	.	.	.	.	.	.	.	.	.	.	.	.	.	.	.	.	.
8CC#/L)	8c#\ 8G#\ 8E\	[	4ee/ 4g#/)	4eee\ 4gg#\)	[	.	.	.	.	.	.	.	.	.	.	4g#/)	.	.	[	[	4ee\)	.	.	[	[
(8AAA#X/J	8c#\J 8G#\ 8E\	.	.	.	.	.	.	.	.	.	.	.	.	.	.	.	.	.	.	.	.	.	.	.	.
=17	=17	=17	=17	=17	=17	=17	=17	=17	=17	=17	=17	=17	=17	=17	=17	=17	=17	=17	=17	=17	=17	=17	=17	=17	=17
4DD#/)	8c#\L 8A#X\ 8D#\	.	(8.dd#/L 8.f##X/	(8.ddd#\L 8.ff##X\	.	2ryy	.	.	.	.	2ryy	.	.	.	.	8.f##X/	.	i	.	.	8.dd#\	I	i	.	.
.	8c#\J 8F##X\ 8D#\	.	.	.	.	.	.	.	.	.	.	.	.	.	.	.	.	.	.	.	.	.	.	.	.
.	.	.	16cc#/Jk 16a#X/	16ccc#\Jk 16aa#X\	.	.	.	.	.	.	.	.	.	.	.	16a#X/	.	pa-	.	.	16cc#\	pa-	pa-	.	.
4r	8F##\L 8D#\	.	8b/L 8d#/	8bb\L 8dd#\	.	.	.	.	.	.	.	.	.	.	.	8d#/	.	-mię-	.	.	8b\	-mię-	-mię-	.	.
.	8c#\J 8D#\	.	8a#/J 8f##/)	8aa#\J 8ff##\)	.	.	.	.	.	.	.	.	.	.	.	8f##/	.	-taj	.	.	8a#X/	-taj	-taj	.	.
!!LO:LB:g=original
=18	=18	=18	=18	=18	=18	=18	=18	=18	=18	=18	=18	=18	=18	=18	=18	=18	=18	=18	=18	=18	=18	=18	=18	=18	=18
2GG#/	(8F##X\L 8C#\	.	(8cc#/L 8e/	(8ccc#\L 8ee\	.	2ryy	.	.	.	.	2ryy	.	.	.	.	8e/	.	w ob-	.	.	8cc#\	w ob-	w ob-	.	.
.	8G#\ 8D#\	.	8b/ 8d#/	8bb\ 8dd#\	.	.	.	.	.	.	.	.	.	.	.	8d#/	.	-cej	.	.	8b\	-cej	-cej	.	.
.	8B\ 8D#\)	.	8d#/	8dd#\ 8b\	.	.	.	.	.	.	.	.	.	.	.	8B/	.	stro-	.	.	8d#/	stro-	stro-	.	.
.	8B\J 8D#\	.	8g#/J)	8gg#\J 8b\)	.	.	.	.	.	.	.	.	.	.	.	8B/	.	-nie	.	.	8g#/	-nie	-nie	.	.
=19	=19	=19	=19	=19	=19	=19	=19	=19	=19	=19	=19	=19	=19	=19	=19	=19	=19	=19	=19	=19	=19	=19	=19	=19	=19
4DD#/	(8A#X\L 8D#\	.	(8f##X/L	(8ff##X\L 8a#X\	.	2ryy	.	.	.	.	2ryy	.	.	.	.	8A#X/	.	o	.	.	8f##X/	O	o	.	.
.	8c#\J 8D#\)	.	8a#X/J	8aa#X\J 8cc#\	.	.	.	.	.	.	.	.	.	.	.	8c#/	.	dziew-	.	.	8a#X/	dziew-	dziew-	.	.
(8AA#X/L 8AAA#X/	(8c#\L 8F##X\	.	8.dd#/L 8.f##/	8.ddd#\L 8.ff##\	.	.	.	.	.	.	.	.	.	.	.	8.f##X/	.	-czy-	.	.	8.dd#\	-czy-	-czy-	.	.
8D#/J 8DD#/)	8A#\J 8F##\)	.	.	.	.	.	.	.	.	.	.	.	.	.	.	.	.	.	.	.	.	.	.	.	.
.	.	.	16cc#/Jk 16f##/)	16ccc#\Jk 16ff##\)	.	.	.	.	.	.	.	.	.	.	.	16f##/	.	-nie	.	.	16cc#\	-nie	-nie	.	.
=20	=20	=20	=20	=20	=20	=20	=20	=20	=20	=20	=20	=20	=20	=20	=20	=20	=20	=20	=20	=20	=20	=20	=20	=20	=20
4.GG#/ 4.GGG#/	4.B\ 4.G#\	>	(16b/LL 16g#/	(16bb\LL 16gg#\	>	2ryy	.	.	.	.	2ryy	.	.	.	.	(4.g#/	.	swej,	>	>	2b\	swej,	swej,	>]	>]
.	.	.	16d#/)	16dd#\ 16b\)	.	.	.	.	.	.	.	.	.	.	.	.	.	.	.	.	.	.	.	.	.
.	.	.	(16d#/	(16dd#\ 16b\	.	.	.	.	.	.	.	.	.	.	.	.	.	.	.	.	.	.	.	.	.
.	.	.	16b/JJ 16g#/)	16bb\JJ 16gg#\)	.	.	.	.	.	.	.	.	.	.	.	.	.	.	.	.	.	.	.	.	.
.	.	.	8b/L 8g#/	8bb\L 8gg#\	.	.	.	.	.	.	.	.	.	.	.	.	.	.	.	.	.	.	.	.	.
!	!LO:N:n=2:acc=n#	!	!LO:N:n=2:acc=n#	!LO:N:n=2:acc=n#	!	!	!	!	!	!	!	!	!	!	!	!LO:N:acc=n#	!	!	!	!	!	!	!	!	!
8GG#/ 8GGG#/	8B\ 8F#X\ 8D#\	]	8b/J 8f#X/	8bb\J 8ff#X\ 8dd#\	]	.	.	.	.	.	.	.	.	.	.	8f#X/)	.	.	]	]]	.	.	.	.	.
=21	=21	=21	=21	=21	=21	=21	=21	=21	=21	=21	=21	=21	=21	=21	=21	=21	=21	=21	=21	=21	=21	=21	=21	=21	=21
!	!	!LO:DY:rj	!	!	!	!	!	!	!	!	!	!	!	!	!	!	!	!	!	!	!	!	!	!LO:DY:a	!LO:DY:a
(4C#/ 4CC#/	8An\L 8E\	p	(8.an/L 8.e/	(8.aan\L 8.ee\ 8.cc#\	p	2ryy	.	.	.	.	2ryy	.	.	.	.	8.e/	.	i	p	p	8.an/	I	i	p	p
.	8A\ 8E\	.	.	.	.	.	.	.	.	.	.	.	.	.	.	.	.	.	.	.	.	.	.	.	.
.	.	.	16cc#/Jk	16ccc#\Jk	.	.	.	.	.	.	.	.	.	.	.	16e/	.	pa-	.	.	16cc#\	pa-	pa-	.	.
4Dn/ 4DDn/)	8G#\ 8E\	.	8b/L 8e/	8bb\L 8ee\	.	.	.	.	.	.	.	.	.	.	.	8e/	.	-mię-	.	.	8b\	-mię-	-mię-	.	.
.	8B\J 8E\	.	8g#/J 8e/)	8gg#\J 8ee\)	.	.	.	.	.	.	.	.	.	.	.	8e/	.	-taj	.	.	8g#/	-taj	-taj	.	.
=22	=22	=22	=22	=22	=22	=22	=22	=22	=22	=22	=22	=22	=22	=22	=22	=22	=22	=22	=22	=22	=22	=22	=22	=22	=22
4.C#/ 4.CC#/	8A\L 8E\	.	(8b/L 8e/	(8bb\L 8ee\	.	2ryy	.	.	.	.	2ryy	.	.	.	.	8e/	.	w ob-	.	.	8b/	w ob-	w ob-	.	.
.	8A\ 8E\	.	8a/ 8e/	8aa\ 8ee\	.	.	.	.	.	.	.	.	.	.	.	8e/	.	-cej	.	.	8a/	-cej	-cej	.	.
.	8A\ 8E\	.	8e/	8ee\ 8a\	.	.	.	.	.	.	.	.	.	.	.	8e/	.	stro-	.	.	8e/	stro-	stro-	.	.
8C#/ 8CC#/	8A\J	.	8f#/J 8e/)	8ff#\J 8ee\ 8a\)	.	.	.	.	.	.	.	.	.	.	.	8e/	.	-nie	.	.	8f#/	-nie	-nie	.	.
!!LO:PB:g=original
=23	=23	=23	=23	=23	=23	=23	=23	=23	=23	=23	=23	=23	=23	=23	=23	=23	=23	=23	=23	=23	=23	=23	=23	=23	=23
*	*^	*	*	*	*	*	*	*	*	*	*	*	*	*	*	*	*	*	*	*	*	*	*	*	*
4.D#/ 4.DD#/	4B\	4ryy	.	(8g#/L 8d#/	(8gg#\L 8dd#\ 8b\	.	2r	.	.	.	.	2r	.	.	.	.	8d#/	.	o	.	.	8g#/	O	o	.	.
.	.	.	.	8b/J 8d#/	8bb\J 8dd#\	.	.	.	.	.	.	.	.	.	.	.	8d#/	.	dziew-	.	.	8b\	dziew-	dziew-	.	.
.	(<8c#/L	4F##X\	.	8a#X/L	8aa#X\L 8cc#\	.	.	.	.	.	.	.	.	.	.	.	8c#/	.	-czy-	.	.	8a#X/	-czy-	-czy-	.	.
8D#/ 8DD#/	8d#/J)	.	.	8b/J)	8bb\J 8dd#\)	.	.	.	.	.	.	.	.	.	.	.	8d#/	.	-nie	.	.	8b\	-nie	-nie	.	.
*	*v	*v	*	*	*	*	*	*	*	*	*	*	*	*	*	*	*	*	*	*	*	*	*	*	*	*
=24	=24	=24	=24	=24	=24	=24	=24	=24	=24	=24	=24	=24	=24	=24	=24	=24	=24	=24	=24	=24	=24	=24	=24	=24	=24
8GG#/L	[4B\ [4G#\	.	[4g#/	[4gg#\ [4b\	.	2r	.	.	.	.	2r	.	.	.	.	[4B/	.	swej.”	.	.	[4g#/	swej.	swej.”	.	.
(8E/ 8EE/	.	.	.	.	.	.	.	.	.	.	.	.	.	.	.	.	.	.	.	.	.	.	.	.	.
8D#/ 8DD#/	8B\] 8G#\]	.	8g#/]	8gg#\] 8b\]	.	.	.	.	.	.	.	.	.	.	.	8B/]	.	.	.	.	8g#/]	.	.	.	.
8BB/J 8BBB/)	8r	.	8r	8r	.	.	.	.	.	.	.	.	.	.	.	8r	.	.	.	.	8r	.	.	.	.
=25	=25	=25	=25	=25	=25	=25	=25	=25	=25	=25	=25	=25	=25	=25	=25	=25	=25	=25	=25	=25	=25	=25	=25	=25	=25
(8.GGG#/L	(8.GG#/L	p	2r	2r	.	8.GG#/	Rze-	Rze-	p	p	2r	.	.	.	.	2r	.	.	.	.	2r	.	.	.	.
16AAAn/Jk	16AAn/Jk	.	.	.	.	16AA/	-cze	-cze	.	.	.	.	.	.	.	.	.	.	.	.	.	.	.	.	.
8CC#/L)	8C#/L)	.	.	.	.	8C#/	dziew-	dziew-	.	.	.	.	.	.	.	.	.	.	.	.	.	.	.	.	.
8CC#/J	8C#/J	.	.	.	.	8C#/	-czę	-czę	.	.	.	.	.	.	.	.	.	.	.	.	.	.	.	.	.
=26	=26	=26	=26	=26	=26	=26	=26	=26	=26	=26	=26	=26	=26	=26	=26	=26	=26	=26	=26	=26	=26	=26	=26	=26	=26
(8BBB#X/L	(8BB#X\L	<	2r	2r	.	8BB#X/	do	do	<	<	2r	.	.	.	.	2r	.	.	.	.	2r	.	.	.	.
8DD#/	8D#\	.	.	.	.	8D#\	mi-	mi-	.	.	.	.	.	.	.	.	.	.	.	.	.	.	.	.	.
8AA/	8A\	.	.	.	.	8A\	-łe-	-łe-	[	[	.	.	.	.	.	.	.	.	.	.	.	.	.	.	.
8GG#/J)	8G#\J)	[	.	.	.	8G#\	-go,	-go,	.	.	.	.	.	.	.	.	.	.	.	.	.	.	.	.	.
=27	=27	=27	=27	=27	=27	=27	=27	=27	=27	=27	=27	=27	=27	=27	=27	=27	=27	=27	=27	=27	=27	=27	=27	=27	=27
(8FF#/L	(8.F#^\L	.	2r	2r	.	8F#\	Rze-	rze-	.	.	8.F#/	Rze-	Rze-	p	p	2r	.	.	.	.	2r	.	.	.	.
8E/J 8EE/	.	.	.	.	.	8E\	-cze	-cze	.	.	.	.	.	.	.	.	.	.	.	.	.	.	.	.	.
.	16G#\Jk	.	.	.	.	.	.	.	.	.	16G#/	-cze	-cze	.	.	.	.	.	.	.	.	.	.	.	.
8D#/L 8DD#/	8A\L)	.	.	.	.	8D#\	do	do	.	.	8A/	dziew-	dziew-	.	.	.	.	.	.	.	.	.	.	.	.
8C#/J 8CC#/)	8A\J	.	.	.	.	8C#/	mi-	mi-	.	.	8A/	-czę	-czę	.	.	.	.	.	.	.	.	.	.	.	.
!!LO:LB:g=original
=28	=28	=28	=28	=28	=28	=28	=28	=28	=28	=28	=28	=28	=28	=28	=28	=28	=28	=28	=28	=28	=28	=28	=28	=28	=28
!	!	!	!	!	!	!	!	!	!LO:DY:a	!LO:DY:a	!	!	!	!	!	!	!	!	!	!	!	!	!	!	!
2BB#X/ 2BBB#X/	(8A\L	<	4r	4r	.	4BB#X/	-łe-	-łe-	<	<	8A/	do	do	<	<	2r	.	.	.	.	2r	.	.	.	.
.	8G#\	.	.	.	.	.	.	.	.	.	8G#/	mi-	mi-	.	.	.	.	.	.	.	.	.	.	.	.
.	8d#\	.	8r	8r	.	4BB#/	-go:	-go:	[	[	8d#\	-łe-	-łe-	[	[	.	.	.	.	.	.	.	.	.	.
!	!	!	!	!	!LO:DY:rj	!	!	!	!	!	!	!	!	!	!	!	!	!	!	!	!	!	!	!	!
.	8G#\J)	[	8g#/ 8f#/	8gg#\ 8ff#\	mf	.	.	.	.	.	8G#/	-go:	-go:	.	.	.	.	.	.	.	.	.	.	.	.
=29	=29	=29	=29	=29	=29	=29	=29	=29	=29	=29	=29	=29	=29	=29	=29	=29	=29	=29	=29	=29	=29	=29	=29	=29	=29
!	!LO:TX:b:i:t=cantabile	!LO:DY:rj	!	!	!	!	!	!	!LO:DY:rj	!LO:DY:rj	!	!	!	!LO:DY:rj	!LO:DY:rj	!	!	!	!LO:DY:rj	!LO:DY:rj	!	!	!	!LO:DY:a:rj	!LO:DY:a:rj
8C#/L 8CC#/	4.G#\	mf	(8g#/L 8e'/	(8gg#\L 8ee'\	.	4.C#/	.	„Ten	mf	mf	4.G#/	Ten	„Ten	mf	mf	8e/	.	Rze-	mf	mf	8g#/	Rze-	Rze-	mf	mf
8C#/	.	.	8g#/J 8e'/	8gg#\ 8ee'\	.	.	.	.	.	.	.	.	.	.	.	8e/	.	-cze	.	.	8g#/	-cze	-cze	.	.
.	.	.	(8qb/	(<8qbb/	.	.	.	.	.	.	.	.	.	.	.	.	.	.	.	.	(8qb/	.	.	.	.
!	!	!	!LO:S:s=2:note:problem=note-level slur	!LO:S:s=2:note:problem=note-level slur	!	!	!	!	!	!	!	!	!	!	!	!	!	!	!	!	!	!	!	!	!
!	!	!	!LO:SIC:s=8a/) 8e'/	!	!	!	!	!	!	!	!	!	!	!	!	!	!	!	!	!	!	!	!	!	!
8C#/	.	.	8a/L) 8e'/	8aa\ 8ee'\)	.	.	.	.	.	.	.	.	.	.	.	8e/	.	dziew-	.	.	8a/)	dziew-	dziew-	.	.
8C#/J	(8G#\	.	8g#/J 8e'/)	8gg#\J 8ee'\)	.	8C#/	.	me-	.	.	8G#/	me-	me-	.	.	8e/	.	-czę	.	.	8g#/	-czę	-czę	.	.
=30	=30	=30	=30	=30	=30	=30	=30	=30	=30	=30	=30	=30	=30	=30	=30	=30	=30	=30	=30	=30	=30	=30	=30	=30	=30
*	*	*	*rep	*rep	*	*	*	*	*	*	*	*	*	*	*	*	*	*	*	*	*	*	*	*	*
8C#/L 8CC#/	4.c#\	.	(8g#/L 8e'/	(8gg#\L 8ee'\	.	4.C#/	.	-da-	.	.	4.c#\	-da-	-da-	.	.	8e/	.	do	.	.	8g#/	do	do	.	.
8C#/	.	.	8g#/J 8e'/	8gg#\ 8ee'\	.	.	.	.	.	.	.	.	.	.	.	8e/	.	mi-	.	.	8g#/	mi-	mi-	.	.
.	.	.	(8qb/	(<8qbb/	.	.	.	.	.	.	.	.	.	.	.	.	.	.	.	.	(8qb/	.	.	.	.
!	!	!	!LO:S:s=2:note:problem=note-level slur	!LO:S:s=2:note:problem=note-level slur	!	!	!	!	!	!	!	!	!	!	!	!	!	!	!	!	!	!	!	!	!
!	!	!	!LO:SIC:s=8a/ 8e'/)	!	!	!	!	!	!	!	!	!	!	!	!	!	!	!	!	!	!	!	!	!	!
8C#/	.	.	8a/L 8e'/)	8aa\ 8ee'\)	.	.	.	.	.	.	.	.	.	.	.	8e/	.	-łe-	.	.	8a/)	-łe-	-łe-	.	.
8C#/J	8B\	.	8g#/J 8e'/)	8gg#\J 8ee'\)	.	8C#/	.	-lik	.	.	8B\	-lik	-lik	.	.	8e/	.	-go:	.	.	8g#/	-go:	-go:	.	.
*	*	*	*Xrep	*Xrep	*	*	*	*	*	*	*	*	*	*	*	*	*	*	*	*	*	*	*	*	*
=31	=31	=31	=31	=31	=31	=31	=31	=31	=31	=31	=31	=31	=31	=31	=31	=31	=31	=31	=31	=31	=31	=31	=31	=31	=31
8C#/L 8CC#/	4A\	.	8cc#/ 8e/	8ccc#\ 8ee\	.	4.C#/	.	z Mat-	.	.	(4A/	z Mat-	z Mat-	.	.	8e/	.	„Nie-	.	.	8cc#\	Nie-	„Nie-	.	.
8C#/	.	.	4e^>/	4eee\ 4ee^\	.	.	.	.	.	.	.	.	.	.	.	4e/	.	-wie-	.	.	4ee\	-wie-	-wie-	.	.
8C#/	8G#\L	.	.	.	.	.	.	.	.	.	8G#/)	.	.	.	.	.	.	.	.	.	.	.	.	.	.
8C#/J	8B\J	.	(16dd#/LL 16f#/	(16ddd#\LL 16ff#\	.	8C#/	.	-ką	.	.	8B/	-ką	-ką	.	.	16f#/	.	-leć	.	.	16dd#\	-leć	-leć	.	.
.	.	.	16cc#/JJ 16e/)	16ccc#\JJ 16ee\)	.	.	.	.	.	.	.	.	.	.	.	16e/	.	ja	.	.	16cc#\	ja	ja	.	.
=32	=32	=32	=32	=32	=32	=32	=32	=32	=32	=32	=32	=32	=32	=32	=32	=32	=32	=32	=32	=32	=32	=32	=32	=32	=32
8C#/L 8CC#/	4A\)	.	(>8dd#/ 8f#/	(8ddd#\ 8ff#\	.	4C#/	.	Bos-	.	.	4A/	Bos-	Bos-	.	.	4.f#/	.	mam.	.	.	(8dd#\	mam,	mam.	.	.
8C#/	.	.	4a/ 4f#/)	4aa\ 4ff#\)	.	.	.	.	.	.	.	.	.	.	.	.	.	.	.	.	4a/)	.	.	.	.
8C#/	(8A\L	.	.	.	.	8C#/	.	-ką	.	.	8A/	-ką	-ką	.	.	.	.	.	.	.	.	.	.	.	.
8C#/J	8c#\J	.	8r	8r	.	8C#/	.	na	.	.	8c#\	Na	na	.	.	8r	.	.	.	.	8r	.	.	.	.
=33	=33	=33	=33	=33	=33	=33	=33	=33	=33	=33	=33	=33	=33	=33	=33	=33	=33	=33	=33	=33	=33	=33	=33	=33	=33
8C#/L 8CC#/	8e\L	.	(8a/L 8f#'/	(8aa\L 8ff#'\	.	4C#/	.	dro-	.	.	(8e\L	dro-	dro-	.	.	8f#/	.	Ten	.	.	8a/	Ten	Ten	.	.
8C#/	8d#\	.	8a/J 8f#'/	8aa\ 8ff#'\	.	.	.	.	.	.	8d#\J)	.	.	.	.	8f#/	.	me-	.	.	8a/	me-	me-	.	.
.	.	.	(8qcc#/	(<8qccc#/	.	.	.	.	.	.	.	.	.	.	.	.	.	.	.	.	(8qcc#/	.	.	.	.
!	!	!	!LO:S:s=2:note:problem=note-level slur	!LO:S:s=2:note:problem=note-level slur	!	!	!	!	!	!	!	!	!	!	!	!	!	!	!	!	!	!	!	!	!
!	!	!	!LO:SIC:s=8b/) 8f#'/	!	!	!	!	!	!	!	!	!	!	!	!	!	!	!	!	!	!	!	!	!	!
8C#/	8A\	.	8b/L) 8f#'/	8bb\) 8ff#'\	.	8C#/	.	-gę	.	.	8A/	-gę	-gę	.	.	8f#/	.	-da-	.	.	8b\)	-da-	-da-	.	.
8C#/J	8c#\J)	.	8a/J 8f#'/)	8aa\J 8ff#'\)	.	8C#/	.	ci	.	.	8c#\	ci	ci	.	.	8f#/	.	-lik	.	.	8a/	-lik	-lik	.	.
!!LO:PB:g=original
=34	=34	=34	=34	=34	=34	=34	=34	=34	=34	=34	=34	=34	=34	=34	=34	=34	=34	=34	=34	=34	=34	=34	=34	=34	=34
8C#/ 8CC#/	(8f#\L	.	(8dd#/L 8a/	(8ddd#\L 8aa\ 8ff#\	.	4.C#/	dam,	dam,	.	.	8f#\	dam	dam,	.	.	8a/	.	z Mat-	.	.	8dd#\	z Mat-	z Mat-	.	.
4C#/ 4CC#/	8e\	.	8cc#/ 8g#/	8ccc#\ 8gg#\ 8ee\	.	.	.	.	.	.	8e\	me-	me-	.	.	8g#/	.	-ką	.	.	8cc#\	-ką	-ką	.	.
.	8d#\	.	8b/ 8f#/	8bb\ 8ff#\ 8dd#\	.	.	.	.	.	.	8d#\	-da-	-da-	.	.	8f#/	.	Bos-	.	.	8b\	Bos-	Bos-	.	.
8C#/ 8CC#/	8c#\J)	.	8a/J 8e/)	8aa\J 8ee\ 8cc#\)	.	8C#/	Na	na	.	.	8c#\	-lik	-lik	.	.	8e/	.	-ką	.	.	8a/	-ką	-ką	.	.
=35	=35	=35	=35	=35	=35	=35	=35	=35	=35	=35	=35	=35	=35	=35	=35	=35	=35	=35	=35	=35	=35	=35	=35	=35	=35
4BB#X/ 4BBB#X/	(4d#\	.	8g#/ 8f#/	8gg#\ 8ff#\ 8dd#\	.	4BB#X/	dro-	dro-	.	.	(4d#\	dam	dam,	.	.	8f#/	.	na	.	.	8g#/	Na	na	.	.
.	.	.	(4ff#^\	(4fff#^<\	.	.	.	.	.	.	.	.	.	.	.	4g#/	.	dro-	.	.	4ff#\	dro-	dro-	.	.
8GG#/L 8GGG#/	4B#X\ 4F#\)	.	.	.	.	8GG#/	-gę	-gę	.	.	4B#X\)	.	.	.	.	.	.	.	.	.	.	.	.	.	.
8GG#/J 8GGG#/	.	.	16ee\LL	16eee\LL	.	8GG#/	ci	ci	.	.	.	.	.	.	.	16g#/	.	-gę	.	.	16ee\	-gę	-gę	.	.
.	.	.	16dd#\JJ)	16ddd#\JJ)	.	.	.	.	.	.	.	.	.	.	.	16g#/	.	ci	.	.	16dd#\	ci	ci	.	.
=36	=36	=36	=36	=36	=36	=36	=36	=36	=36	=36	=36	=36	=36	=36	=36	=36	=36	=36	=36	=36	=36	=36	=36	=36	=36
(4C#/ 4CC#/	(8c#\L 8E\	.	(4ee\ 4g#\	4eee\ 4gg#\	.	(4C#/	.	dam.	.	.	(4c#\	dam_	dam.	.	.	(4g#/	.	dam.	.	.	(4ee\	dam_	dam.	.	.
.	8e\J 8c#\ 8G#\)	.	.	.	.	.	.	.	.	.	.	.	.	.	.	.	.	.	.	.	.	.	.	.	.
4D#/ 4DD#/	8r	.	4dd#\ 4b#X\ 4f#\	(16ff#\LL	.	4D#/	.	.	.	.	4f#\	.	.	.	.	4b#X\	.	.	.	.	4dd#\	.	.	.	.
.	.	.	.	16gg#\	.	.	.	.	.	.	.	.	.	.	.	.	.	.	.	.	.	.	.	.	.
.	8d#\ 8B#X\ 8F#\	.	.	16bb#X\	.	.	.	.	.	.	.	.	.	.	.	.	.	.	.	.	.	.	.	.	.
.	.	.	.	16ddd#\JJ	.	.	.	.	.	.	.	.	.	.	.	.	.	.	.	.	.	.	.	.	.
=37	=37	=37	=37	=37	=37	=37	=37	=37	=37	=37	=37	=37	=37	=37	=37	=37	=37	=37	=37	=37	=37	=37	=37	=37	=37
4E/ 4EE/	8r	.	4cc#/ 4g#/ 4e/	16gg#\LL	.	4E\	.	.	.	.	4e\	.	.	.	.	4g#/	.	.	.	.	4cc#\	.	.	.	.
.	.	.	.	16ff#\	.	.	.	.	.	.	.	.	.	.	.	.	.	.	.	.	.	.	.	.	.
.	8c#\ 8G#\	.	.	16gg#\	.	.	.	.	.	.	.	.	.	.	.	.	.	.	.	.	.	.	.	.	.
.	.	.	.	16ccc#\JJ	.	.	.	.	.	.	.	.	.	.	.	.	.	.	.	.	.	.	.	.	.
4F#/ 4FF#/)	8r	.	4a/ 4f#/	16ff#\LL	.	4F#\	.	.	.	.	4c#\	.	.	.	.	[4f#/	.	.	.	.	4a/	.	.	.	.
.	.	.	.	16gg#\	.	.	.	.	.	.	.	.	.	.	.	.	.	.	.	.	.	.	.	.	.
.	8c#\ 8A\	.	.	16aa\	.	.	.	.	.	.	.	.	.	.	.	.	.	.	.	.	.	.	.	.	.
.	.	.	.	16ccc#\JJ	.	.	.	.	.	.	.	.	.	.	.	.	.	.	.	.	.	.	.	.	.
=38	=38	=38	=38	=38	=38	=38	=38	=38	=38	=38	=38	=38	=38	=38	=38	=38	=38	=38	=38	=38	=38	=38	=38	=38	=38
!	!	!LO:MO:null:mod=!LO&colon;HP&colon;t=dim.	!	!	!LO:MO:mod=!LO&colon;HP&colon;t=dim.	!	!	!	!	!	!	!	!	!	!	!	!	!	!	!	!	!	!	!	!
!	!	!null	!	!	!	!	!	!	!	!	!	!	!	!	!	!	!	!	!	!	!	!	!	!	!
!	!	!LO:MO:null:mod=>	!	!	!LO:HP:t=diminuendo	!	!	!	!	!	!	!	!	!	!	!	!	!	!	!	!	!	!	!	!
(4BBn/ 4BBBn/	8r	.	4bn/ 4f#/ 4d#/	16bbn\LL	>	4BB/	.	.	.	.	4d#\	.	.	.	.	4f#/]	.	.	.	.	4b/	.	.	.	.
.	.	.	.	16fff#\	.	.	.	.	.	.	.	.	.	.	.	.	.	.	.	.	.	.	.	.	.
!	!	!LO:HP:t=dimin	!	!	!	!	!	!	!	!	!	!	!	!	!	!	!	!	!	!	!	!	!	!	!
!	!	!LO:MO:mod=.	!	!	!	!	!	!	!	!	!	!	!	!	!	!	!	!	!	!	!	!	!	!	!
.	8Bn\ 8D#\	>	.	16ddd#\	.	.	.	.	.	.	.	.	.	.	.	.	.	.	.	.	.	.	.	.	.
.	.	.	.	16bb\JJ	.	.	.	.	.	.	.	.	.	.	.	.	.	.	.	.	.	.	.	.	.
!	!	!	!	!	!	!	!	!	!LO:HP:b	!LO:HP:a:t=dim.	!	!	!	!LO:HP:b	!LO:HP:a:t=dim.	!	!	!	!LO:HP:b	!LO:HP:a:t=dim.	!	!	!	!LO:HP:b	!LO:HP:a:t=dim.
4C#/ 4CC#/	8r	.	4a/ 4e/ 4c#/	16aa\LL	.	4C#/	.	.	>	>	4c#\	.	.	>	>	4e/	.	.	>	>	4a/	.	.	>	>
.	.	.	.	16gg#\	.	.	.	.	.	.	.	.	.	.	.	.	.	.	.	.	.	.	.	.	.
.	8A\ 8E\	.	.	16ff#\	.	.	.	.	.	.	.	.	.	.	.	.	.	.	.	.	.	.	.	.	.
.	.	.	.	16ee\JJ	.	.	.	.	.	.	.	.	.	.	.	.	.	.	.	.	.	.	.	.	.
=39	=39	=39	=39	=39	=39	=39	=39	=39	=39	=39	=39	=39	=39	=39	=39	=39	=39	=39	=39	=39	=39	=39	=39	=39	=39
4D#/ 4DD#/	8r	.	4f#/	16ff#\LL	.	4D#\	.	.	.	.	4A/	.	.	.	.	2B/)	.	.	.	.	4f#/	.	.	.	.
.	.	.	.	16gg#\	.	.	.	.	.	.	.	.	.	.	.	.	.	.	.	.	.	.	.	.	.
.	8B\ 8A\	.	.	16aa\	.	.	.	.	.	.	.	.	.	.	.	.	.	.	.	.	.	.	.	.	.
.	.	.	.	16ccc#\JJ	.	.	.	.	.	.	.	.	.	.	.	.	.	.	.	.	.	.	.	.	.
4E/ 4EE/)	8r	.	4g#/)	16bb\LL	.	4E\)	.	.	.	.	4G#/)	_	_	.	.	.	.	.	.	.	4g#/)	.	.	.	.
.	.	.	.	16ggg#\	.	.	.	.	.	.	.	.	.	.	.	.	.	.	.	.	.	.	.	.	.
.	8B\ 8G#\	.	.	16eee\	.	.	.	.	.	.	.	.	.	.	.	.	.	.	.	.	.	.	.	.	.
.	.	.	.	16bb\JJ)	.	.	.	.	.	.	.	.	.	.	.	.	.	.	.	.	.	.	.	.	.
!!LO:LB:g=original
=40	=40	=40	=40	=40	=40	=40	=40	=40	=40	=40	=40	=40	=40	=40	=40	=40	=40	=40	=40	=40	=40	=40	=40	=40	=40
!	!	!LO:DY:rj	!	!	!LO:DY:rj	!	!	!	!LO:DY:rj	!LO:DY:rj	!	!	!	!LO:DY:rj	!LO:DY:rj	!	!	!	!LO:DY:a:rj	!LO:DY:a:rj	!	!	!	!LO:DY:rj:a	!LO:DY:rj:a
8.D#/L 8.DD#/	8.c#\L 8.A\	p	8.g#/L	8.gg#\L 8.cc#\	p	8.D#\	.	Ten	p	p	8.A/	.	Ten	p	p	8.c#/	.	Ten	p	p	8.g#/	Ten	Ten	p	p
16D#/Jk 16DD#/	16c#\Jk 16A\	.	16f#/Jk	16ff#\Jk 16cc#\	.	16D#\	.	me-	.	.	16A/	.	me-	.	.	16c#/	.	me-	.	.	16f#/	me-	me-	.	.
8D#/L 8DD#/	8c#\L 8A\	.	8a/L 8f#/	8aa\L 8ff#\	.	8D#\	.	-da-	.	.	8c#\	.	-da-	.	.	8f#/	.	-da-	.	.	8a/	-da-	-da-	.	.
8E/J 8EE/	8c#\J 8G#\	.	8g#/J	8gg#\J 8cc#\	.	8E\	.	-lik	.	.	8c#\	.	-lik	.	.	8g#/	.	-lik	.	.	8g#/	-li	-lik	.	.
=41	=41	=41	=41	=41	=41	=41	=41	=41	=41	=41	=41	=41	=41	=41	=41	=41	=41	=41	=41	=41	=41	=41	=41	=41	=41
8F#/L 8FF#/	8d#\L 8c#\	.	8b/L	8bb\L 8dd#\	.	8F#\	.	z Mat-	.	.	8c#\	.	z Mat-	.	.	8d#/	.	z Mat-	.	.	8b/	z Mat-	z Mat-	.	.
8F#/J 8FF#/	8d#\J 8c#\	.	8a/J	8aa\J 8dd#\	.	8F#\	.	-ką	.	.	8c#\	.	-ką	.	.	8d#/	.	-ką	.	.	8a/	-ką	-ką	.	.
8AA/L 8AAA/	8c#\L 8F#\	.	(16cc#/LL	(16ccc#\LL	.	8AA/	.	bos-	.	.	8F#/	.	bos-	.	.	8c#/	.	bos-	.	.	(16cc#/LL	Bos-	Bos-	.	.
.	.	.	16d#/J)	16dd#\J)	.	.	.	.	.	.	.	.	.	.	.	.	.	.	.	.	16d#/JJ)	.	.	.	.
8FF#/J	8c#\J 8A\ 8F#\	.	8d#/J	8dd#\J 8cc#\	.	8F#\	.	-ką	.	.	8A/	.	-ką	.	.	8c#/	.	-ką	.	.	8d#/	-ką	-ką	.	.
=42	=42	=42	=42	=42	=42	=42	=42	=42	=42	=42	=42	=42	=42	=42	=42	=42	=42	=42	=42	=42	=42	=42	=42	=42	=42
(16EE/LL	(16c#\LL 16G#\ 16E\	.	(16e/LL	(16ee\LL 16cc#\	.	(16E\LL	.	na	.	.	(16G#/LL	.	na	.	.	(16c#/LL	.	na	.	.	(16e/LL	Na	na	.	.
16DD#/JJ	16F#\JJ 16D#\	.	16f#/JJ 16d#/	16ff#\JJ 16dd#\	.	16D#\JJ)	.	.	.	.	16F#/JJ)	.	.	.	.	16d#/JJ)	.	.	.	.	16f#/JJ)	.	.	.	.
!	!	!LO:MO:mod=!LO&colon;HP&colon;t=cresc.	!	!	!LO:MO:mod=!LO&colon;HP&colon;t=cresc.	!	!	!	!	!	!	!	!	!	!	!	!	!	!	!	!	!	!	!	!
!	!	!LO:HP:t=crescendo	!	!	!LO:HP:t=crescendo	!	!	!	!	!	!	!	!	!	!	!	!	!	!	!	!	!	!	!	!
4C#/ 4CC#/)	4E\)	<	4g#/ 4e/)	4gg#\ 4ee\)	<	4C#/	.	dro-	.	.	4E/	.	dro-	.	.	4e/	.	dro-	.	.	4g#/	dro-	dro-	.	.
!	!	!	!	!	!	!	!	!	!LO:HP:b	!	!	!	!	!LO:HP:b	!	!	!	!	!	!	!	!	!	!	!
8E/ 8EE/	8c#\ 8G#\	.	8g#/	8gg#\ 8cc#\	.	8E\	.	gę,	<	<	8G#/	.	-gę,	<	<	8c#/	.	-gę,	.	.	8g#/	-gę,	-gę,	.	.
=43	=43	=43	=43	=43	=43	=43	=43	=43	=43	=43	=43	=43	=43	=43	=43	=43	=43	=43	=43	=43	=43	=43	=43	=43	=43
!	!	!	!	!	!	!	!	!	!	!	!	!	!	!	!	!	!	!	!LO:HP:b	!	!	!	!	!LO:HP:a	!LO:HP:a
8D#/ 8DD#/	(16c#\LL	.	(16a#X/LL 16f##X/	(16aa#X\LL 16ff##X\	.	8D#\	.	na	.	.	(16c#\LL	.	na	.	.	(16f##X/LL	.	na	<	<	(16a#X/LL	na	na	<	<
.	16B#X\JJ	.	16b#X/JJ 16g#/	16bb#X\JJ 16gg#\	.	.	.	.	.	.	16B#X\JJ)	.	.	.	.	16g#/JJ)	.	.	.	.	16b#X/JJ)	.	.	.	.
4D#/ 4DD#/	4A#X\)	.	4cc#/ 4f##/)	4ccc#\ 4ff##\)	.	4D#\	.	dro-	.	.	4A#X/	.	dro-	.	.	4f##/	.	dro-	.	.	4cc#\	dro-	dro-	.	.
8D#/ 8DD#/	8d#\	.	8cc#/ 8a#/	8ccc#\ 8aa#\	.	8D#\	.	-gę,	.	.	8d#\	.	-gę,	.	.	8a#X/	.	-gę,	.	.	8cc#\	-gę,	-gę,	.	.
=44	=44	=44	=44	=44	=44	=44	=44	=44	=44	=44	=44	=44	=44	=44	=44	=44	=44	=44	=44	=44	=44	=44	=44	=44	=44
!	!	!LO:DY:rj	!	!	!LO:DY:rj	!	!	!	!LO:DY:rj	!LO:DY:rj	!	!	!	!LO:DY:b:rj	!LO:DY:b:rj	!	!	!	!LO:DY:b:rj	!LO:DY:b:rj	!	!	!	!LO:DY:a	!LO:DY:a
8GG#/ 8GGG#/	(16f#\LL	f	(16dd#\LL 16b#X\	(16ddd#\LL 16bb#X\	f	8GG#/	.	na	f	f	(16f#\LL	.	na	f	f	(16b#X\LL	.	na	f	f	(16dd#\LL	na	na	f	f
!	!	!	!LO:SIC:s=16ee\JJ 16cc#\)	!LO:SIC:s=16eee\JJ 16ccc#\)	!	!	!	!	!	!	!	!	!	!	!	!	!	!	!	!	!	!	!	!	!
.	16e\JJ)	.	16ee\JJ 16cc#\	16eee\JJ 16ccc#\	.	.	.	.	.	.	16e\JJ)	.	.	.	.	16cc#\JJ)	.	.	.	.	16ee\JJ)	.	.	.	.
4.G#/ 4.GG#^^/	[4.d#^\	.	[4.ff#\ [4.b#^\)	[4.fff#\ [4.bb#^\)	.	[4.G#^\	.	dro-	.	.	[4.d#^\	.	dro-	.	.	[4.b#^\	.	dro-	.	.	[4.ff#^\	dro-	dro-	.	.
=45	=45	=45	=45	=45	=45	=45	=45	=45	=45	=45	=45	=45	=45	=45	=45	=45	=45	=45	=45	=45	=45	=45	=45	=45	=45
!	!	!	!	!	!	!	!	!	!LO:HP:b	!	!	!	!	!LO:HP:b	!	!	!	!	!LO:HP:b	!	!	!	!	!	!
4GG#/ 4GGG#^>/	4d#\]	>	4ff#\] 4b#\]	4fff#\] 4bb#\]	>	4G#\]	.	.	>	>	4d#\]	.	.	>	>	4b#\]	.	.	>	>	4ff#\]	.	.	.	>
!	!	!	!	!	!	!	!	!	!	!	!	!	!	!	!	!	!	!	!	!	!	!	!	!LO:HP:a	!LO:HP:a
8GG#/L 8GGG#/	8d#\L 8B#X\ 8F#\	.	8b#X/L 8f#/	8bb#X\L 8ff#\ 8dd#\	.	8G#\	.	-gę	.	.	8d#\	.	-gę	.	.	8f#/	.	gę	.	.	8b#X\	-gę	-gę	>	.
!	!	!	!	!	!LO:MO:mod=]]	!	!	!	!	!	!	!	!	!	!	!	!	!	!	!	!	!	!	!	!
8GG#/J 8GGG#/	8d#\J 8B#\ 8F#\	]]	8b#/J 8f#/	8bb#\J 8ff#\ 8dd#\	]	8G#\	.	ci	]	]	8d#\	.	ci	]	]	8f#/	.	ci	]	]	8b#\	ci	ci	]	]
!!LO:PB:g=original
=46	=46	=46	=46	=46	=46	=46	=46	=46	=46	=46	=46	=46	=46	=46	=46	=46	=46	=46	=46	=46	=46	=46	=46	=46	=46
!	!	!LO:DY:rj	!	!	!LO:DY:rj	!	!	!	!LO:DY:b:rj	!LO:DY:b:rj	!	!	!	!LO:DY:b:rj	!LO:DY:b:rj	!	!	!	!LO:DY:b:rj	!LO:DY:b:rj	!	!	!	!LO:DY:rj	!LO:DY:rj
4C#/ 4CC#/	8c#\L 8E\	p	(8.cc#/L 8.e/	(8.ccc#\L 8.ee\	p	(4C#/	.	dam.”	p	p	(4c#\	.	dam.”	p	p	(4e/	.	dam.”	p	p	(8.cc#\L	dam._	dam.”	p	p
.	8c#\J 8G#\ 8E\	.	.	.	.	.	.	.	.	.	.	.	.	.	.	.	.	.	.	.	.	.	.	.	.
.	.	.	16dd#/Jk	16ddd#\Jk	.	.	.	.	.	.	.	.	.	.	.	.	.	.	.	.	16dd#\Jk	.	.	.	.
4FF#/	8r	.	16cc#\LL	16ccc#\LL	.	4F#\	.	.	.	.	4A/	.	.	.	.	4f#/	.	.	.	.	8.cc#\L	.	.	.	.
.	.	.	16b\	16bb\	.	.	.	.	.	.	.	.	.	.	.	.	.	.	.	.	.	.	.	.	.
!	!	!	!LO:SIC:s=16a\	!LO:SIC:s=16a\	!	!	!	!	!	!	!	!	!	!	!	!	!	!	!	!	!	!	!	!	!
.	8c#\ 8A\ 8F#\	.	16a\)	16aa\)	.	.	.	.	.	.	.	.	.	.	.	.	.	.	.	.	.	.	.	.	.
!	!	!	!LO:SIC:s=16b\JJ)	!LO:SIC:s=16bb\JJ)	!	!	!	!	!	!	!	!	!	!	!	!	!	!	!	!	!	!	!	!	!
.	.	.	16b\JJ	16bb\JJ	.	.	.	.	.	.	.	.	.	.	.	.	.	.	.	.	16dd#\Jk	.	.	.	.
=47	=47	=47	=47	=47	=47	=47	=47	=47	=47	=47	=47	=47	=47	=47	=47	=47	=47	=47	=47	=47	=47	=47	=47	=47	=47
4C#/ 4CC#/	8r	.	(8.cc#\L	(8.ccc#\L	.	4C#/	.	.	.	.	4G#/	.	.	.	.	4e/	.	.	.	.	8.cc#\L	.	.	.	.
.	8c#\ 8G#\ 8E\	.	.	.	.	.	.	.	.	.	.	.	.	.	.	.	.	.	.	.	.	.	.	.	.
.	.	.	16dd#\Jk	16ddd#\Jk	.	.	.	.	.	.	.	.	.	.	.	.	.	.	.	.	16dd#\Jk	.	.	.	.
4FF#/	8r	.	16cc#/LL	16ccc#\LL	.	4F#\	.	.	.	.	4A/	.	.	.	.	4d#/	.	.	.	.	8.cc#\L	.	.	.	.
.	.	.	16a/	16aa\	.	.	.	.	.	.	.	.	.	.	.	.	.	.	.	.	.	.	.	.	.
.	8c#\ 8A\ 8D#\	.	16f#/	16ff#\	.	.	.	.	.	.	.	.	.	.	.	.	.	.	.	.	.	.	.	.	.
.	.	.	16a/JJ)	16aa\JJ)	.	.	.	.	.	.	.	.	.	.	.	.	.	.	.	.	16dd#\Jk	.	.	.	.
=48	=48	=48	=48	=48	=48	=48	=48	=48	=48	=48	=48	=48	=48	=48	=48	=48	=48	=48	=48	=48	=48	=48	=48	=48	=48
!	!	!	!	!	!	!LO:SIC:s=[2C#/	!	!	!	!	!LO:SIC:s=[2G#/	!	!	!	!	!LO:SIC:s=[2e/	!	!	!	!	!LO:SIC:s=[2cc#\	!	!	!	!
[2C#/ [2CC#/	[2c#\ [2G#\ [2E\	.	(16cc#\LL	(16ccc#\LL	.	[2C#/)	.	.	.	.	[2G#/)	.	.	.	.	[2e/)	.	.	.	.	[2cc#\)	.	.	.	.
.	.	.	16g#\	16gg#\	.	.	.	.	.	.	.	.	.	.	.	.	.	.	.	.	.	.	.	.	.
.	.	.	16ee\	16eee\	.	.	.	.	.	.	.	.	.	.	.	.	.	.	.	.	.	.	.	.	.
.	.	.	16dd#\JJ	16ddd#\JJ	.	.	.	.	.	.	.	.	.	.	.	.	.	.	.	.	.	.	.	.	.
*	*	*	*	*8va	*	*	*	*	*	*	*	*	*	*	*	*	*	*	*	*	*	*	*	*	*
!	!	!	!LO:TX:a:i:t=morendo	!	!	!	!	!	!	!	!	!	!	!	!	!	!	!	!	!	!	!	!	!	!
.	.	>	16ee\LL	16eee\LL	.	.	.	.	.	.	.	.	.	.	.	.	.	.	.	.	.	.	.	.	.
.	.	.	16ff#\	16fff#\	.	.	.	.	.	.	.	.	.	.	.	.	.	.	.	.	.	.	.	.	.
.	.	.	16aa\	16aaa\	.	.	.	.	.	.	.	.	.	.	.	.	.	.	.	.	.	.	.	.	.
.	.	.	16gg#\JJ	16ggg#\JJ	.	.	.	.	.	.	.	.	.	.	.	.	.	.	.	.	.	.	.	.	.
=49	=49	=49	=49	=49	=49	=49	=49	=49	=49	=49	=49	=49	=49	=49	=49	=49	=49	=49	=49	=49	=49	=49	=49	=49	=49
!!LO:TX:a:i:t= :mod=rall.
2C#/_ 2CC#/_	2c#\_ 2G#\_ 2E\_	.	16ff##X\LL	16fff##X\LL	.	2C#/_	.	.	.	.	2G#/_	.	.	.	.	2e/_	.	.	.	.	2cc#\_	.	.	.	.
.	.	.	16gg#\	16ggg#\	.	.	.	.	.	.	.	.	.	.	.	.	.	.	.	.	.	.	.	.	.
.	.	.	16bb\	16bbb\	.	.	.	.	.	.	.	.	.	.	.	.	.	.	.	.	.	.	.	.	.
.	.	.	16gg#\JJ	16ggg#\JJ	.	.	.	.	.	.	.	.	.	.	.	.	.	.	.	.	.	.	.	.	.
!	!LO:TX:b:t=rallent:dur=4q:ext=ud:problem=text with extension lines:mod=	!	!	!LO:TX:b:t=rallent:dur=5q:ext=ud:problem=text with extension lines:mod=	!	!	!	!	!	!	!	!	!	!	!	!	!	!	!	!	!	!	!	!	!
.	.	]	16bb\LL	16bbb\LL	.	.	.	.	.	.	.	.	.	.	.	.	.	.	.	.	.	.	.	.	.
.	.	.	16gg#\	16ggg#\	.	.	.	.	.	.	.	.	.	.	.	.	.	.	.	.	.	.	.	.	.
.	.	.	(8qbb/	(8qbbb/	.	.	.	.	.	.	.	.	.	.	.	.	.	.	.	.	.	.	.	.	.
.	.	.	16aa\)	16aaa\)	.	.	.	.	.	.	.	.	.	.	.	.	.	.	.	.	.	.	.	.	.
.	.	.	16gg#\JJ	16ggg#\JJ	.	.	.	.	.	.	.	.	.	.	.	.	.	.	.	.	.	.	.	.	.
=50	=50	=50	=50	=50	=50	=50	=50	=50	=50	=50	=50	=50	=50	=50	=50	=50	=50	=50	=50	=50	=50	=50	=50	=50	=50
!	!	!	!	!	!	!LO:SIC:s=4C#/])	!	!	!	!	!LO:SIC:s=4G#/])	!	!	!	!	!LO:SIC:s=4e/])	!	!	!	!	!LO:SIC:s=4cc#\])	!	!	!	!
4C#/] 4CC#/]	4c#\] 4G#\] 4E\]	pp	4.eee\)	4.eeee\)	.	4C#/]	.	.	.	.	4G#/]	.	.	.	.	4e/]	.	.	.	.	4cc#\]	.	.	.	.
!	!	!	!	!	!LO:DY:rj	!	!	!	!	!	!	!	!	!	!	!	!	!	!	!	!	!	!	!	!
4C#/: 4CC#::/	4c#\:: 4G#\: 4E:\	.	.	.	pp	4r	.	.	.	.	4r	.	.	.	.	4r	.	.	.	.	4r	.	.	.	.
.	.	.	8gg#\:: 8dd#':\	8dddd#\: 8ggg#\: 8ddd#'::\	.	.	.	.	.	.	.	.	.	.	.	.	.	.	.	.	.	.	.	.	.
=51	=51	=51	=51	=51	=51	=51	=51	=51	=51	=51	=51	=51	=51	=51	=51	=51	=51	=51	=51	=51	=51	=51	=51	=51	=51
!	!LO:TX:t=P:problem=arpeggio przez 2 systemy	!	!	!LO:TX:t=P:problem=arpeggio przez 2 systemy	!	!	!	!	!	!	!	!	!	!	!	!	!	!	!	!	!	!	!	!	!
2C#/: 2CC#:/	2c#\: 2G#\: 2E;:\	.	2gg#\: 2ee\: 2cc#;:\	2cccc#\: 2ggg#\: 2eee\: 2ccc#;:\	.	2r;	.	.	.	.	2r;	.	.	.	.	2r;	.	.	.	.	2r;	.	.	.	.
*	*	*	*	*X8va	*	*	*	*	*	*	*	*	*	*	*	*	*	*	*	*	*	*	*	*	*
==	==	==	==	==	==	==	==	==	==	==	==	==	==	==	==	==	==	==	==	==	==	==	==	==	==
*-	*-	*-	*-	*-	*-	*-	*-	*-	*-	*-	*-	*-	*-	*-	*-	*-	*-	*-	*-	*-	*-	*-	*-	*-	*-
!!!system-decoration: {{(s1,s2,s3,s4)}{(s5,s6)}{(s7,s8)}}
!!!system-decoration-mod: [(s1,s2,s3,s4)]{(s5,s6)}{(s7,s8)}
!!!RDF**kern: > = above
!!!RDF**kern: < = below
!!LO:MO:ori
!!!RDF**dynam: > = dim
!!!RDF**dynam: < = cresc
!!LO:MO:end
!!!ENC: Mateusz Solarz
!!!END: 2021-05-10
!!!ENC: Andrzej Borzym
!!!END: 2021-05-28
!!!ENC-modern: Katarzyna Serwa
!!!END-modern: 2022-08-23
!!!filter-modern: sic -sq | shed -e "s/LO:DY:(a|b|rj)/LO:dy:$1/L" | autostem -r | tie -s | shed -k -e "s/[<>]//g" | shed -e "s/TX(.*):t=P:/tx$1:t=P:/LG" | shed -e "s/^(X?)rep$/$1REP/I" | shed -e "s/^(\d+[\/\\]right)/$1yy/I; s/^(\d+[\/\\]left)/$1yy/I" | modori -m
!!!YEC: Copyright 2022 Narodowy Instytut Fryderyka Chopina (https://polishscores.org)
!!!YEM: Licence CC BY 4.0 (https://creativecommons.org/licenses/by/4.0)
